static/znak_green.svg

<svg xmlns="http://www.w3.org/2000/svg" width="1200" height="744"><path d="M0 0v744h1200V0H0z" fill="#fdfdfd"/><path d="M578 21.424c-11.558 1.518-23.374.106-35 .615-17.033.746-34.031 3.19-51 5.246-27.825 3.373-54.808 10.04-82 16.186-49.322 11.148-99.117 29.186-144 52.872C176.346 143.656 89.93 222.596 69.379 326c-7.27 36.574-2.624 74.179 5.218 110.004 5.6 25.576 18.676 52.24 33.291 73.971 22.401 33.308 49.891 63.163 81.397 88.165C285.218 674.269 409.765 709.808 530 721.829c11.888 1.189 24.068-.312 36 .21 42.358 1.855 85.847 1.888 128-3.223 32.109-3.894 63.811-10.751 95.17-18.362 43.246-10.495 87.039-24.508 126.83-44.928 46.893-24.065 92.3-51.785 129.6-89.621 25.77-26.136 48.74-56.307 63.74-89.905 11.33-25.392 18.64-50.44 21.95-78 2.65-22.099 1.57-43.057-1.85-65-9.62-61.712-44.04-116.334-88.93-158.999-68.302-64.929-154.511-105-244.796-129.531-29.23-7.942-59.687-12.84-89.714-16.752-5.327-.694-10.681-2.197-16-2.625-3.983-.32-8.034.25-12-.302-4.727-.657-9.181-2.37-14-2.701-13.611-.938-27.37.467-41-.13-14.755-.646-30.243-2.473-45-.536z" fill="#4d4d4d"/><path d="M238 598c1.856 5.351 10.782 9.244 15.576 12.041 15.11 8.816 30.616 16.48 46.294 24.231 18.162 8.979 36.954 16.129 56.13 22.524 13.364 4.456 26.356 9.766 40.004 13.469 41.515 11.263 83.398 18.782 125.996 22.905 107.161 10.37 218.646.652 320-36.287 8.537-3.112 17.451-5.378 25.961-8.844C922.919 625.65 975.322 595.402 1019 554.91c7.58-7.031 13.66-14.854 20.41-22.486 14.73-16.622 28.62-33.483 38.83-53.424 11.87-23.162 21.06-47.217 25.32-73 2.5-15.079 2.44-29.726 2.44-45 0-11.726-2.46-22.593-4.88-34-6.34-29.861-18.43-57.063-35.55-82.325-57.29-84.521-151.832-136.148-247.57-165.42-27.5-8.409-55.552-15.808-84-20.791-3.645-.639-7.356-.284-11-.928-10.257-1.812-20.608-4.326-31-5.366-12.23-1.222-24.724-1.419-37-2.26-8.685-.594-17.31-2.225-26-2.82-25.293-1.733-51.844-.694-77 1.74-15.294 1.48-30.727 1.813-46 3.34-10.427 1.043-20.695 3.834-31 5.505-3.584.581-7.265-.062-10.83.584C383.299 72.92 301.129 100.6 233 147.377 159.746 197.673 96.092 271.44 92.04 364c-.657 14.987 1.089 29.375 3.865 44 2.691 14.177 5.142 28.556 10.597 42 10.571 26.05 25.583 50.676 43.405 72.385 18.562 22.61 39.758 44.375 64.093 60.844 7.315 4.951 14.843 13.755 24 14.771z" fill="#fdfdfd"/><path d="M863 461h-5c-3.084 6.458-10.595 10.387-16.4 14.289-14.782 9.935-29.861 16.936-46.6 23.03-57.956 21.101-127.259 14.793-180.089-16.949-16.034-9.633-32.259-20.955-43.53-36.295-9.878-13.445-19.827-29.642-23.783-46.075-6.004-24.941-2.663-51.148 8.532-74 4.567-9.321 10.062-17.957 16.624-26 3.858-4.729 9.779-8.972 11.246-15 5.16-.752 7.963-4.908 12.04-7.857 8.421-6.092 17.163-11.88 26.13-17.139 19.537-11.459 42.795-17.406 64.83-21.63 31.558-6.049 65.051-2.613 96 5.14 8.626 2.161 17.726 5.782 26.004 9.079 4.438 1.768 8.168 3.923 12.996 4.407 1.645 4.533 7.032 5.675 10.911 8.076 4.945 3.061 10.154 6.109 14.575 9.899 4.648 3.985 9.401 9.737 15.514 11.025v-92c0-3.573.465-7.575-1.303-10.829-2.571-4.734-7.548-7.408-11.697-10.507-9.138-6.824-18.367-12.73-27.996-18.729-42.79-26.659-92.924-44.716-143.004-51.224-34.244-4.45-68.345-7.995-103-5.621-13.149.9-26.094 3.477-39 5.585-3.979.65-8.032.028-12 .84C418.034 124.399 311.411 186.736 271.467 293c-9.046 24.064-14.123 49.21-14.448 75-.088 6.945 1.154 14.09 1.811 21 1.783 18.737 4.684 37.896 11.571 55.715 19.613 50.742 54.189 92.078 97.56 124.359 91.062 67.778 215.958 88.494 326.039 65.44 20.298-4.251 40.385-8.806 60-15.687 24.213-8.494 46.836-20.533 68.985-33.208 9.77-5.591 18.967-12.1 28.015-18.84 3.778-2.813 8.765-5.428 10.972-9.783 1.511-2.98 1.028-6.764 1.028-9.996v-86z" fill="#4d4d4d"/><path d="M393 526V314c0-7.359-1.609-16.92.514-24 1.68-5.605 7.264-10.525 11.501-14.281 23.638-20.957 62.867-11.144 74.659 18.451 9.74 24.444-4.703 56.425-30.675 63.084-5.678 1.456-12.158 2.782-17.999 1.977-3.13-.43-9.562-3.044-12.397-1.114C415.75 360.061 417 367.053 417 370v26c0 3.382-.879 8.367.858 11.427C420.656 412.356 433.198 411 438 411c21.823-.001 45.33-9.114 61.816-23.427 11.143-9.675 21.509-22.579 26.274-36.572 1.194-3.509 3.478-6.567 4.534-10.091 7.3-24.344 4.564-54.062-7.423-76.486-30.056-56.223-110.093-69.473-156.201-25.385-9.299 8.892-19.613 21.299-23.211 33.961-1.687 5.935-.789 12.885-.789 19v176c0 6.57-1.207 14.54.557 20.91 1.506 5.441 6.662 10.525 10.277 14.666C363.875 515.077 376.912 525.856 393 526z" fill="#fdfdfd"/><path d="M758 293v46c0 3.803-1.708 13.295 2.434 15.397 3.06 1.553 8.228.603 11.566.603h25c3.691 0 10.569-1.284 12.972 2.318C813.153 362.084 811 373.426 811 379v50c0 5.643-1.916 15.562.603 20.682 1.188 2.415 4.089 2.27 6.398 2.313 5.662.107 11.336.005 16.999.005h74v-97h55v-44c0-4.065 1.663-12.932-1.028-16.258-2.45-3.028-9.555-1.742-12.972-1.742H758z" fill="#4d4d4d"/></svg>

<?xml version="1.0" standalone="yes"?>
<svg xmlns="http://www.w3.org/2000/svg" width="1200" height="744">
<path style="fill:#fdfdfd; stroke:none;" d="M0 0L0 744L1200 744L1200 0L0 0z"/>
<path style="fill:#4d4d4d; stroke:none;" d="M578 21.4244C566.442 22.942 554.626 21.5303 543 22.0394C525.967 22.7852 508.969 25.2288 492 27.2855C464.175 30.6581 437.192 37.3256 410 43.4714C360.678 54.6189 310.883 72.6574 266 96.3434C176.346 143.656 89.9308 222.596 69.3789 326C62.1096 362.574 66.7547 400.179 74.5972 436.004C80.1961 461.58 93.2728 488.244 107.888 509.975C130.289 543.283 157.779 573.138 189.285 598.14C285.218 674.269 409.765 709.808 530 721.829C541.888 723.018 554.068 721.517 566 722.039C608.358 723.894 651.847 723.927 694 718.816C726.109 714.922 757.811 708.065 789.17 700.454C832.416 689.959 876.209 675.946 916 655.526C962.893 631.461 1008.3 603.741 1045.6 565.905C1071.37 539.769 1094.34 509.598 1109.34 476C1120.67 450.608 1127.98 425.56 1131.29 398C1133.94 375.901 1132.86 354.943 1129.44 333C1119.82 271.288 1085.4 216.666 1040.51 174.001C972.208 109.072 885.999 69.0001 795.714 44.4699C766.484 36.5282 736.027 31.6301 706 27.7184C700.673 27.0245 695.319 25.5209 690 25.0934C686.017 24.7733 681.966 25.3422 678 24.7909C673.273 24.1338 668.819 22.4213 664 22.0895C650.389 21.1522 636.63 22.5574 623 21.9606C608.245 21.3145 592.757 19.4868 578 21.4244z"/>
<path style="fill:#fdfdfd; stroke:none;" d="M238 598C239.856 603.351 248.782 607.244 253.576 610.041C268.686 618.857 284.192 626.521 299.87 634.272C318.032 643.251 336.824 650.401 356 656.796C369.364 661.252 382.356 666.562 396.004 670.265C437.519 681.528 479.402 689.047 522 693.17C629.161 703.54 740.646 693.822 842 656.883C850.537 653.771 859.451 651.505 867.961 648.039C922.919 625.65 975.322 595.402 1019 554.91C1026.58 547.879 1032.66 540.056 1039.41 532.424C1054.14 515.802 1068.03 498.941 1078.24 479C1090.11 455.838 1099.3 431.783 1103.56 406C1106.06 390.921 1106 376.274 1106 361C1106 349.274 1103.54 338.407 1101.12 327C1094.78 297.139 1082.69 269.937 1065.57 244.675C1008.28 160.154 913.738 108.527 818 79.2546C790.5 70.8463 762.448 63.4468 734 58.4637C730.355 57.8252 726.644 58.1802 723 57.5363C712.743 55.7238 702.392 53.2096 692 52.1705C679.77 50.9476 667.276 50.7512 655 49.9105C646.315 49.3157 637.69 47.6846 629 47.0895C603.707 45.3574 577.156 46.3959 552 48.8303C536.706 50.3102 521.273 50.6434 506 52.1705C495.573 53.2131 485.305 56.0042 475 57.6752C471.416 58.2564 467.735 57.613 464.17 58.2593C383.299 72.9193 301.129 100.599 233 147.377C159.746 197.673 96.0924 271.44 92.0394 364C91.3831 378.987 93.129 393.375 95.9051 408C98.5961 422.177 101.047 436.556 106.502 450C117.073 476.05 132.085 500.676 149.907 522.385C168.469 544.995 189.665 566.76 214 583.229C221.315 588.18 228.843 596.984 238 598z"/>
<path style="fill:#4d4d4d; stroke:none;" d="M863 461L858 461C854.916 467.458 847.405 471.387 841.6 475.289C826.818 485.224 811.739 492.225 795 498.319C737.044 519.42 667.741 513.112 614.911 481.37C598.877 471.737 582.652 460.415 571.381 445.075C561.503 431.63 551.554 415.433 547.598 399C541.594 374.059 544.935 347.852 556.13 325C560.697 315.679 566.192 307.043 572.754 299C576.612 294.271 582.533 290.028 584 284C589.16 283.248 591.963 279.092 596.04 276.143C604.461 270.051 613.203 264.263 622.17 259.004C641.707 247.545 664.965 241.598 687 237.374C718.558 231.325 752.051 234.761 783 242.514C791.626 244.675 800.726 248.296 809.004 251.593C813.442 253.361 817.172 255.516 822 256C823.645 260.533 829.032 261.675 832.911 264.076C837.856 267.137 843.065 270.185 847.486 273.975C852.134 277.96 856.887 283.712 863 285L863 212L863 193C863 189.427 863.465 185.425 861.697 182.171C859.126 177.437 854.149 174.763 850 171.664C840.862 164.84 831.633 158.934 822.004 152.935C779.214 126.276 729.08 108.219 679 101.711C644.756 97.2605 610.655 93.7162 576 96.0895C562.851 96.9899 549.906 99.5665 537 101.675C533.021 102.325 528.968 101.703 525 102.515C418.034 124.399 311.411 186.736 271.467 293C262.421 317.064 257.344 342.21 257.019 368C256.931 374.945 258.173 382.09 258.83 389C260.613 407.737 263.514 426.896 270.401 444.715C290.014 495.457 324.59 536.793 367.961 569.074C459.023 636.852 583.919 657.568 694 634.514C714.298 630.263 734.385 625.708 754 618.827C778.213 610.333 800.836 598.294 822.985 585.619C832.755 580.028 841.952 573.519 851 566.779C854.778 563.966 859.765 561.351 861.972 556.996C863.483 554.016 863 550.232 863 547L863 529L863 461z"/>
<path style="fill:#fdfdfd; stroke:none;" d="M393 526L393 363L393 314C393 306.641 391.391 297.08 393.514 290C395.194 284.395 400.778 279.475 405.015 275.719C428.653 254.762 467.882 264.575 479.674 294.17C489.414 318.614 474.971 350.595 448.999 357.254C443.321 358.71 436.841 360.036 431 359.231C427.87 358.801 421.438 356.187 418.603 358.117C415.75 360.061 417 367.053 417 370L417 396C417 399.382 416.121 404.367 417.858 407.427C420.656 412.356 433.198 411 438 411C459.823 410.999 483.33 401.886 499.816 387.573C510.959 377.898 521.325 364.994 526.09 351.001C527.284 347.492 529.568 344.434 530.624 340.91C537.924 316.566 535.188 286.848 523.201 264.424C493.145 208.201 413.108 194.951 367 239.039C357.701 247.931 347.387 260.338 343.789 273C342.102 278.935 343 285.885 343 292L343 326L343 425L343 468C343 474.57 341.793 482.54 343.557 488.91C345.063 494.351 350.219 499.435 353.834 503.576C363.875 515.077 376.912 525.856 393 526z"/>
<path style="fill:#4d4d4d; stroke:none;" d="M758 293L758 339C758 342.803 756.292 352.295 760.434 354.397C763.494 355.95 768.662 355 772 355L797 355C800.691 355 807.569 353.716 809.972 357.318C813.153 362.084 811 373.426 811 379L811 429C811 434.643 809.084 444.562 811.603 449.682C812.791 452.097 815.692 451.952 818.001 451.995C823.663 452.102 829.337 452 835 452L909 452L909 355L964 355L964 311C964 306.935 965.663 298.068 962.972 294.742C960.522 291.714 953.417 293 950 293L912 293L758 293z"/>
</svg>
